static/assets/images/exchanges/whitebit.svg

<svg width="321" height="256" viewBox="0 0 321 256" fill="none" xmlns="http://www.w3.org/2000/svg">
<path fill-rule="evenodd" clip-rule="evenodd" d="M7.91304 92.4701C2.88217 100.625 0.368164 110.038 0.368164 120.704H59.8057V154.353C59.8057 210.195 105.705 256 161.663 256H264.777V57.0972L320.738 0.625788H252.201C221.389 0.625788 196.241 25.7255 196.241 56.4686H127.71L184.298 0H115.764C84.9543 0 59.8057 25.0968 59.8057 55.8428V57.0972H58.5459C37.7982 57.0972 19.5645 68.3897 10.1327 85.3314H59.8057V92.4685L7.91304 92.4701ZM186.609 139.059C187.824 141.967 189.603 144.606 191.845 146.823C194.067 149.06 196.712 150.835 199.625 152.047C202.538 153.258 205.663 153.882 208.819 153.882C211.975 153.882 215.1 153.258 218.013 152.047C220.927 150.835 223.571 149.06 225.793 146.823L191.845 112.94C189.603 115.158 187.824 117.797 186.609 120.704C185.395 123.612 184.769 126.731 184.769 129.882C184.769 133.032 185.395 136.151 186.609 139.059Z" fill="white"/>
</svg>

<svg xmlns="http://www.w3.org/2000/svg" fill="none" viewBox="0 0 321 256"><path fill="#fff" fill-rule="evenodd" d="M7.913 92.47Q.368 104.704.368 120.704h59.438v33.649C59.806 210.195 105.705 256 161.663 256h103.114V57.097L320.738.626h-68.537c-30.812 0-55.96 25.1-55.96 55.843H127.71L184.298 0h-68.534c-30.81 0-55.958 25.097-55.958 55.843v1.254h-1.26c-20.748 0-38.982 11.293-48.413 28.234h49.673v7.138zm178.696 46.589a23.9 23.9 0 0 0 5.236 7.764 23.9 23.9 0 0 0 16.974 7.059c3.156 0 6.281-.624 9.194-1.835a23.9 23.9 0 0 0 7.78-5.224l-33.948-33.883a23.82 23.82 0 0 0-5.236 26.119" clip-rule="evenodd"/></svg>
